svg/white/eos.svg

<svg xmlns="http://www.w3.org/2000/svg" width="32" height="32" viewBox="0 0 32 32">
  <path fill="#FFF" d="M16,32 C7.163444,32 0,24.836556 0,16 C0,7.163444 7.163444,0 16,0 C24.836556,0 32,7.163444 32,16 C32,24.836556 24.836556,32 16,32 Z M10.5723277,11.547336 L8.10262492,22.8306977 C8.06367296,22.9743112 8.13197005,23.1241518 8.25699728,23.1935259 L15.8296085,27.9385243 C15.8862411,27.9740103 15.9459,27.9893417 16.00336,27.9885707 C16.06082,27.9893417 16.1204789,27.9740103 16.1771115,27.9385243 L23.7497227,23.1935259 C23.87475,23.1241518 23.943047,22.9743112 23.9040951,22.8306977 L21.4343923,11.547336 C21.4249723,11.5001881 21.4050275,11.4557746 21.3763208,11.4175057 L16.2654189,4.43499472 C16.1971721,4.34175594 16.0992617,4.30136282 16.00336,4.30346251 C15.9074583,4.30136282 15.8095479,4.34175594 15.7413011,4.43499472 L10.6303992,11.4175057 C10.6016925,11.4557746 10.5817477,11.5001881 10.5723277,11.547336 Z M9.17737475,20.9136729 L10.9435699,12.8444354 L11.9532235,16.0151232 L9.17737475,20.9136729 Z M8.96130043,22.59312 L12.2178759,16.8462302 L14.047879,22.59312 L8.96130043,22.59312 Z M9.52551912,23.23312 L14.2516765,23.23312 L15.429751,26.9327119 L9.52551912,23.23312 Z M12.3832428,15.2562668 L11.2404832,11.667577 L15.67952,5.6029676 L15.67952,9.43931511 L12.3832428,15.2562668 Z M16.00336,26.6247806 L14.9233412,23.23312 L17.0833788,23.23312 L16.00336,26.6247806 Z M16.576969,26.9327119 L17.7550435,23.23312 L22.4812009,23.23312 L16.576969,26.9327119 Z M21.0631501,12.8444354 L22.8293452,20.9136729 L20.0534965,16.0151232 L21.0631501,12.8444354 Z M19.6234772,15.2562668 L16.3272,9.43931511 L16.3272,5.6029676 L20.7662368,11.667577 L19.6234772,15.2562668 Z M23.0454196,22.59312 L17.958841,22.59312 L19.7888441,16.8462302 L23.0454196,22.59312 Z M16.00336,10.1659735 L19.3588248,16.0873737 L17.2871764,22.59312 L14.7195436,22.59312 L12.6478952,16.0873737 L16.00336,10.1659735 Z"/>
</svg>

<svg xmlns="http://www.w3.org/2000/svg" width="32" height="32"><path fill="#FFF" d="M16 32C7.163 32 0 24.837 0 16S7.163 0 16 0s16 7.163 16 16-7.163 16-16 16zm-5.428-20.453l-2.47 11.284a.322.322 0 0 0 .155.363l7.573 4.745c.056.035.116.05.173.05a.317.317 0 0 0 .174-.05l7.573-4.745a.322.322 0 0 0 .154-.363l-2.47-11.284a.322.322 0 0 0-.058-.13l-5.11-6.982a.311.311 0 0 0-.263-.132.311.311 0 0 0-.262.132l-5.11 6.983a.322.322 0 0 0-.059.13zm-1.395 9.367l1.767-8.07 1.01 3.171-2.777 4.899zm-.216 1.68l3.257-5.748 1.83 5.747H8.96zm.565.64h4.726l1.178 3.699-5.904-3.7zm2.857-7.978l-1.143-3.588 4.44-6.065v3.836l-3.297 5.817zm3.62 11.369l-1.08-3.392h2.16l-1.08 3.392zm.574.308l1.178-3.7h4.726l-5.904 3.7zm4.486-14.089l1.766 8.07-2.776-4.899 1.01-3.17zm-1.44 2.412L16.327 9.44V5.603l4.44 6.065-1.144 3.588zm3.422 7.337H17.96l1.83-5.747 3.256 5.747zm-7.042-12.427l3.356 5.921-2.072 6.506H14.72l-2.072-6.506 3.355-5.921z"/></svg>
